X: 31454
T: Paddy Taylor's
R: jig
M: 6/8
K: Dmajor
|:B|ABA g2 g|aba efg|fef ged|cAG EFG|
A2 A gfg|a2 a ee/f/g|fed cAG|Adc d2:|
|:e|fed edc|ded cAG|ABA DED|f2 d ecA|
f2 d edc|d2 d cde|fed cA^G|Adc d2:|

